X:1
T:Sonatina No. 2 in F
T:Sonatina in F
T:Anh. 5, No. 2
T:Beethoven
T:Public Domain (PianoXML)
T:Public Domain (PianoXML)
T:Public Domain (PianoXML)
T:Public Domain (PianoXML)
T:Public Domain (PianoXML)
C:Beethoven
Z:Public Domain (PianoXML)
%%score { 1 | 2 }
L:1/8
Q:1/4=100
M:2/4
K:F
V:1 treble nm="Piano" snm="Pno."
V:2 bass 
V:1
!f!"^Allegro assai" !tenuto!f2 !tenuto!f!tenuto!f |!>(! !4!f/(e/d/c/ B/A/G/F/)!>)! |!<(! .E.F.G.A | %3
!>(! (c2!<)! B)!>)! z |!f! !tenuto!g2 !tenuto!g!tenuto!g | !5!g/!>(!(f/e/d/ c/B/A/G/)!>)! | %6
 .F.E.F.G | A2!mp! (c/A/c/A/ | F) z{/!3!A} .G.F |{/A} .G.F!mf! (f/c/f/c/ | A) z{/!3!c} .B.A | %11
{/B} .B.A!f! (!5!a/f/a/f/ | .d).!3!d (!2!^c/!1!d/e/f/ | .g).!3!g (a/g/f/e/ | %14
!p! !2!^c/!3!d/c/d/ !2!c/!1!d/e/f/ | a/g/a/g/!>(! a/g/f/e/ | d)(!3!e/f/ .!1!c).!2!=B | %17
 !3!c!>)!(!1!=B/c/ ^c/!1!d/!2!^d/!3!e/ :| !tenuto!f2) !tenuto!f!tenuto!f | %19
!>(! (!4!f/e/d/c/ B/A/G/F/!>)! | !3!_E)(!2!D/!4!F/ E)(D/F/ | _E2) z2 | %22
 !tenuto!_e2 !tenuto!e!tenuto!e |!>(! (!3!_e/d/c/!4!B/ A/G/F/!3!_E/ | D)!>)!C/_E/ D(C/E/ | D2) z2 | %26
!mf! !3!d(!4!_e/!2!^c/ !3!d)(e/c/ | !1!d)(!5!a!3!^f!1!=c | !3!B)(A/c/ B)(A/c/ | B4 | %30
!mp! c)(!2!=B/d/ c)=B/d/ | c(!5!g!4!=e!2!_B | A)(G/B/ A)(G/B/ | A4 | B)(!5!f!4!d!1!A | !2!G4 | %36
 A)(!5!e!4!^c!1!G | !2!F4) | z!<(! (!1!F!4!d!2!=B | !5!f!1!d!4!=b!2!f | !5!d'!1!=b!<)!!5!f'!4!d' | %41
 c'=bab |!mp!"_legato" c') z (!5!g/e/g/e/ | c) z!<(! (!5!c'/g/c'/g/ | e) z (!4!e'/c'/e'/c'/ | %45
 =bd'f'b!<)! | c') z!>(! (!5!d'/_b/d'/b/ | g) z (!5!b/g/b/g/ | e) z (!5!g/e/g/e/ | %49
 c)!>)! z!mp! (!5!c/A/c/A/ | F) z{/!3!G} .G.F |{/A} .G.F (f/c/f/c/ | A) z{/!3!c} .B.A | %53
 .B.A!f! (!5!a/f/a/f/ | .d).d (!2!^c/!1!d/e/f/ | .g).g!ff! (!5!d'/_b/d'/b/ | %56
 !2!a/g/a/g/ !2!^f/!1!g/a/b/ | !5!d'/!>(!c'/d'/c'/ b/a/!1!g/!2!=f/ | %58
 !1!g)(!3!a/!4!b/ .!1!f)!>)!.!2!e |!>(! f(a!4!f!2!d!>)! | !1!c4-) | c(afd | c4-) | %63
 c!5!a (g/f/e/!1!d/ | !2!c/!3!d/c/d/ c/d/c/d/ | c/d/c/d/ c/d/c/d/ |!<(! !1!c/d/c/d/ c/!4!a/g/f/ | %67
 e/f/e/f/ !1!e/!4!b/a/g/ | f2)!<)! z2 |!f! [gbe']2 z2 | [af']2 z2 |] %71
[M:2/4]!p!"^Rondo"[Q:1/4=110]"^Allegro" .!2!c.f.=B.f |!<(! !2!c3 (!2!^c | .d)!<)!.f^c.f | %74
 !1!d3!f! !turn!f | (ec').c'.c' | c'2 (!3!a/f/a/c'/ | b)(!2!g/b/ a)(!1!f/a/ | %78
 g)(!3!a/!>(!g/ !1!f/!3!e/d/c/)!>)! |!p! .!2!c.f.=B.f |!<(! c3 (!2!^c!<)! | .d).f^c.f | %82
 d3 !turn!f | (ec').c'.c' | c'2 (b/a/g/f/ | g)(g/b/ e)!>(!(e/g/ | f2) z2!>)! |:!f! .!3!g.g.^f.f | %88
!<(! (ga/=b/!<)!!>(! c'/b/a/g/!>)! | .=f).f.e.e |!<(! (f=b/c'/!<)!!>(! d'/b/g/f/!>)! | %91
 e/g/a/g/ c'/=b/a/g/ | f/=b/d'/c'/ b/a/g/f/ | e/g/a/g/ c'/=b/a/g/ | f/=b/d'/c'/ b/a/g/f/ | %95
 e/c'/g/e/ d/a/f/d/ | c/g/e/c/ =B/f/d/B/ | c)(C/^C/ D/^D/E/F/ | ^F/G/^G/A/ B/=B/c/B/ | %99
!p! .c).f.=B.f |!<(! c3 (^c!<)! | .d).f^c.f | d3!f! !turn!f | (ec').c'.c' | c'2 (b/a/g/f/ | %105
 g)(g/b/ e)(e/g/ | f2) z2 ::!p! (a2 ba | a2 ^cd | e^cAa | g2 f2) |!mf! (afdd' | b4) |!mp! (afdd' | %114
 b4) |!mf! (afdd' | c'b)(ba) | (ag)(gf) | (f2 e) z ::!mf! (a2 ba | =c'4) |!mp! (f2 gf | a4) | %123
!mf! (d'fd'f | c'fc'f |!mp! bdbd | ad!>(!ad | gefd | e^cAa)!>)! |!p! (a2 ba | a2 ^cd | e^cAa | %132
 g2 f2) | (d2 d'a | b2 ge | fage |!<(! d2) z2 :| e2 z2 | f2 z2 | g2 z2 | a2 z2!<)! | %141
 !fermata!b2 (ag |!>(! d'2 c'b | agb)a!>)! |{a} g{g}f{f}e{e}d | .c.f.=B.f | c3 (^c | .d).f^c.f | %148
 d3 !turn!f |!f! (ec').c'.c' | c'2 (a/f/a/c'/ | b)(g/b/ a)(f/a/ | g)(a/!>(!g/ f/e/d/c/!>)! | %153
 .c).f.=B.f | c3 (^c | .d).f.^c.f | d3 !turn!f | (ec')c'c' | c'2 b/(a/g/f/) | .g(g/b/) .e(e/g/) | %160
 f2 z2 |!p! [ec']2 z2 | [fa]2 z2 | [GBe]2 [GBe]2 | [FAf]2 z2 |] %165
V:2
 (F,/A,/C/A,/ F,/A,/C/A,/ | F,2) z2 | (!2!B,/C/!3!A,/C/ !4!G,/C/!5!F,/C/ | E,2) z2 | %4
 (!5!E,/!2!B,/C/B,/ E,/B,/C/B,/ | E,2) z2 | (!2!A,/C/G,/C/ A,/C/E,/C/ | !4!F,2) z2 | %8
 (!3!A,/C/A,/C/ B,/C/A,/C/ | B,/C/A,/C/) z2 | (!5!F,/C/F,/C/ G,/C/F,/C/ | G,/C/F,/C/) z2 | %12
 (([F,=B,]4 | [E,C]4)) | (([F,=B,]4 | [E,C]4)) | z (!2!F,.!1!G,).!5!G,, | !2!C,2 z2 :| %18
!f! (F,/A,/C/A,/ F,/A,/C/A,/ | F,2) z2 | (!4!C,/F,/=B,,/F,/ C,/F,/B,,/F,/ | C,2) z2 | %22
!f! (!5!F,/A,/C/A,/ F,/A,/C/A,/ | F,2) z2 | (!4!_B,,/F,/A,,/F,/ B,,/F,/A,,/F,/ | B,,2) z2 | %26
 (^F,4- | F,4 | !2!G,)(!3!^F,G,F, | G,)!<(!!1!D!2!B,!4!=F,!<)! | (!5!=E,4- | E,4 | !4!F,)(E,F,E, | %33
 F,)(!1!C!2!A,!4!E, | !5!D,4 | !4!E,)(!1!B,!2!G,!4!D, | !5!^C,4 | !4!D,)(A,F,=C, | =B,,2) z2 | x4 | %40
 x4 | [G,F]2 z2 |[K:treble] [CE]G[CE]G | [CE]G[CE]G | [CE]G[CE]G | [DF]G[DF]G | [CE] z z2 | %47
 [CE] z z2 | [CG] z z2 | [EGB] z z2 |[K:bass] (A,/C/A,/C/ B,/C/A,/C/ | B,/C/A,/C/) z2 | %52
 !3!F,/C/F,/C/ G,/C/F,/C/ | G,/C/F,/C/ z2 | (([F,=B,]4 | [E,C]2)) z2 | (([_B,E]4 | [A,F]2)) z2 | %58
 z (!2!B,.!1!C).!5!C, | !2!F,2 z2 |[K:treble] z"^dolce" (!4!EGB | [FA]2) z2 | z (EGB | [FA]2) z2 | %64
 z (!4!E!2!G!1!B | GEGB | [FA]2) z2 | [CG]2 z2 | [A,F]2 z2 |[K:bass]!ped! [C,C]2 z2!ped-up! | %70
!ped! [F,,F,]2 z2!ped-up! |][M:2/4] (!3!A,!5!F,!3!^G,F, | !3!A,F,A,F, | !2!B,F,A,F, | B,F,B,F, | %75
 [G,B,]C,[G,B,]C, | [F,A,]C,[F,A,]C, | [E,G,]C,[F,A,]C, | !arpeggio![C,E,G,C]2) z2 | (A,F,^G,F, | %80
 A,F,A,F, | B,F,A,F, | B,F,B,!5!F, |!f! [G,B,]C,[G,B,]C, | [F,A,]2) z2 | (!2!B,D)([C,G,]B,) | %86
 ([F,A,]C[F,A,]) z |: .[CE].[CE].[C^D].[CD] | [CE]2 z2 | .[G,=D].[G,D].[G,^C].[G,C] | [G,D]2 z2 | %91
 ([=CE]4 | [G,D]4) | ([CE]4 | [G,D]4) | (C2 F2 | G2 G,2 | C) z z2 | x4 | (A,F,^G,F, | A,F,A,F, | %101
 B,F,A,F, | B,F,B,F, | [G,B,]C,[G,B,]C, | [F,A,]2) z2 | (B,D)([C,G,]B,) | ([F,A,]C[F,A,]) z :: %107
 DFDF | E!tenuto!GEG | ^CECE | DFDF | F,DA,D | G,DB,D | F,DA,D | G,DB,D | F,DA,D | G,DF,D | %117
 E,^CD,D | ([A,-D]2 [A,^C]) z :: DFDF | A,EA,E | B,DB,D | F,=CF,C | (B,2 DF | A,4) | (G,2 B,D | %126
 F,4) | (^C,2 D,2 | A,,2) z2 | DFDF | EGEG | ^CECE | DFDF | F,DA,D | G,DB,E | DA,^CA, | DA,D, z :| %137
 (B,G,=C,) z | (A,F,C,) z | (G,E,C,) z | (F,C,F,,) z | !arpeggio!!fermata![C,,E,,G,,C,]2 z2 | x4 | %143
 x4 | x4 |!p! (A,F,^G,F, | A,F,A,F, | B,F,A,F, | B,F,B,F, | [G,B,]C,[G,B,]C, | [F,A,]C,.[F,A,]C, | %151
 [E,G,]C,[F,A,]C, | !arpeggio![C,E,G,C]2) z2 |!p! (A,F,^G,F, | A,F,A,F, | B,F,A,F, | B,F,B,F, | %157
!f! [G,B,]C,[G,B,]C, | [F,A,]2) z2 | (B,D)([C,G,]B,) | ([F,A,]C[F,A,]) z |[K:treble] [CG]2 z2 | %162
 [FA]2 z2 |[K:bass]!f!!ped! [C,C]2!ped-up!!ped! [C,C]2!ped-up! |!ped! [F,,F,]2 z2!ped-up! |] %165

